X: 1
T: Paddy Keenan's Jig
Z: EW
M: 6/8
L: 1/8
R: jig
K: Edor
|: EGA B2A | Bee B2A | GBB FAF | GFE FED |
EGA B2A | Bee B2A | GBB FAF |1 GED E2D :|2 GED E2A |]
|: Bef g2e | fed edB | AFD dAF | ABc def |
eBe g2e | fed edB | AFD dAF |1 GED E2A :|2 GED E2D |]
